<?xml version="1.0" encoding="UTF-8"?>
<map version="1.10" tiledversion="1.11.2" orientation="orthogonal" renderorder="right-down" width="30" height="20" tilewidth="16" tileheight="16" infinite="0" nextlayerid="5" nextobjectid="1">
 <tileset firstgid="1" source="tileset.tsx"/>
 <layer id="1" name="圖塊層 1" width="30" height="20">
  <data encoding="csv">
410,411,410,411,411,411,411,410,410,411,411,411,410,410,411,410,410,410,411,410,411,410,410,411,411,410,411,410,411,411,
410,410,411,410,411,410,410,410,410,410,411,411,410,410,411,410,410,410,410,411,411,410,410,411,410,410,410,411,411,411,
410,410,410,411,411,411,411,410,411,411,410,411,410,410,411,410,410,410,411,410,411,411,411,411,410,410,411,411,411,410,
410,410,411,410,411,411,410,411,411,411,410,410,410,410,411,410,410,410,410,410,411,410,410,411,410,410,411,411,411,411,
410,410,410,410,411,411,410,411,411,411,410,410,410,410,411,410,410,410,411,410,411,410,410,411,410,411,410,411,411,411,
410,410,410,410,410,411,410,411,411,410,411,410,411,410,410,411,410,410,410,410,411,410,410,411,410,411,410,411,411,410,
410,410,410,410,411,410,410,411,411,410,411,410,411,410,410,411,410,410,410,410,411,410,410,411,411,410,410,411,411,410,
410,410,410,410,411,411,410,411,411,411,411,410,411,410,410,411,410,410,410,410,410,411,410,411,411,410,410,411,411,410,
410,410,410,410,410,411,410,411,411,411,411,410,411,410,410,411,410,410,410,410,410,410,410,411,410,410,410,410,411,410,
411,410,410,410,410,411,411,411,411,411,411,410,411,410,410,411,410,410,410,410,410,410,410,411,410,410,410,410,411,410,
411,410,410,410,411,411,411,411,411,411,411,410,411,410,410,411,410,410,410,410,410,410,411,411,410,410,410,410,411,410,
411,410,410,410,411,411,411,411,410,411,410,410,411,410,410,411,410,410,410,410,410,410,411,411,410,410,410,410,411,410,
411,410,410,410,411,411,411,411,410,411,410,410,411,410,411,411,410,410,410,410,410,410,411,411,410,410,411,410,411,410,
411,410,410,410,411,410,411,411,410,411,410,410,411,410,411,410,410,410,410,411,410,411,411,410,410,411,410,410,411,410,
410,410,410,410,411,411,411,411,410,411,410,410,411,410,411,410,410,410,410,411,410,411,410,410,411,411,410,410,411,410,
410,410,410,410,411,411,411,411,411,410,410,410,411,410,411,410,410,410,410,411,410,411,410,410,411,411,410,410,411,410,
410,411,410,410,411,411,411,411,411,410,410,410,411,410,411,410,410,411,410,411,410,411,410,410,411,411,410,410,411,410,
410,411,410,410,410,410,410,410,411,411,411,411,411,410,411,411,410,411,410,411,410,410,410,410,411,411,410,411,411,410,
410,411,410,411,411,411,411,410,410,410,410,410,410,410,411,410,410,411,410,411,411,410,410,410,411,411,410,411,411,410,
410,410,410,411,411,411,411,410,410,410,411,410,410,410,410,411,410,411,410,411,410,410,410,410,411,411,411,410,411,410
</data>
 </layer>
 <layer id="3" name="Collision_object" width="30" height="20">
  <data encoding="csv">
0,0,0,0,0,0,0,0,0,0,0,0,0,0,0,0,0,0,0,0,0,0,0,0,0,0,0,0,0,0,
0,0,0,0,0,0,0,0,0,0,0,0,0,0,0,0,0,0,0,0,0,0,0,0,0,0,0,0,0,0,
0,0,0,0,0,0,0,0,0,0,0,0,0,0,0,0,0,0,0,0,0,0,0,0,0,0,0,0,0,0,
0,0,0,0,0,0,0,0,0,0,0,0,722,0,719,720,0,774,0,0,0,0,0,0,0,0,0,0,0,0,
0,0,0,0,0,0,0,0,0,0,0,0,722,0,771,772,0,774,0,0,0,0,0,0,0,0,0,0,0,0,
0,0,0,0,0,0,0,0,0,0,0,0,0,0,0,0,0,0,0,0,0,0,0,0,0,0,0,0,0,0,
0,0,0,0,0,0,0,0,0,0,0,0,0,0,0,0,0,0,0,0,0,0,0,0,0,0,0,0,0,0,
0,0,0,0,0,0,0,0,0,0,0,0,0,0,0,0,0,0,0,0,0,0,0,0,0,0,0,0,0,0,
0,0,0,0,0,0,0,0,0,0,0,0,0,0,0,0,0,0,0,0,0,0,0,0,0,0,0,0,0,0,
0,0,0,0,0,0,0,0,0,0,0,0,0,0,0,0,0,0,0,0,0,0,0,0,0,0,0,0,0,0,
0,0,0,0,0,0,0,0,0,0,0,0,0,0,0,0,0,0,0,0,0,0,0,0,0,0,0,0,0,0,
0,0,0,0,0,0,0,0,0,0,0,0,0,0,0,0,0,0,0,0,0,0,0,0,0,0,0,0,0,0,
0,0,0,0,0,0,0,0,0,0,0,0,0,0,0,0,0,0,0,0,0,0,0,0,0,0,0,0,0,0,
0,0,0,0,0,0,0,0,0,0,0,0,0,0,0,0,0,0,0,0,0,0,0,0,0,0,0,0,0,0,
0,0,0,0,0,0,0,0,0,0,0,0,0,0,0,0,0,0,0,0,0,0,0,0,0,0,0,0,0,0,
0,0,0,0,0,0,0,0,0,0,0,0,0,0,0,0,0,0,0,0,0,0,0,0,0,0,0,0,0,0,
0,0,0,0,0,0,0,0,0,0,0,0,0,0,0,0,0,0,0,0,0,0,0,0,0,0,0,0,0,0,
0,0,0,0,0,0,0,0,0,0,0,0,0,0,0,0,0,0,0,0,0,0,0,0,0,0,0,0,0,0,
0,0,0,0,0,0,0,0,0,0,0,721,0,721,0,0,721,0,721,0,0,0,0,0,0,0,0,0,0,0,
0,0,0,0,0,0,0,0,0,0,0,773,0,773,0,0,773,0,773,0,0,0,0,0,0,0,0,0,0,0
</data>
 </layer>
 <layer id="4" name="Collision" width="30" height="20">
  <data encoding="csv">
407,408,408,408,408,408,408,408,408,408,408,408,408,408,408,408,408,408,408,408,408,408,408,408,408,408,408,408,408,409,
459,0,0,0,0,0,0,0,0,0,0,0,0,0,0,0,0,0,0,0,0,0,0,0,0,0,0,0,0,461,
459,0,0,0,0,0,0,0,0,0,0,0,0,0,0,0,0,0,0,0,0,0,0,0,0,0,0,0,0,461,
459,0,0,0,0,0,0,0,0,0,0,0,0,0,0,0,0,0,0,0,0,0,0,0,0,0,0,0,0,461,
459,0,0,0,0,0,0,0,0,0,0,0,0,0,0,0,0,0,0,0,0,0,0,0,0,0,0,0,0,461,
459,0,0,0,0,0,0,0,0,0,0,0,0,0,0,0,0,0,0,0,0,0,0,0,0,0,0,0,0,461,
459,0,0,0,0,0,0,0,0,0,0,0,0,0,0,0,0,0,0,0,0,0,0,0,0,0,0,0,0,461,
459,0,0,0,0,0,0,0,0,0,0,0,0,0,0,0,0,0,0,0,0,0,0,0,0,0,0,0,0,461,
459,0,0,0,0,0,0,0,0,0,0,0,0,0,0,0,0,0,0,0,0,0,0,0,0,0,0,0,0,461,
459,0,0,0,0,0,0,0,0,0,0,0,0,0,0,0,0,0,0,0,0,0,0,0,0,0,0,0,0,461,
459,0,0,0,0,0,0,0,0,0,0,0,0,0,0,0,0,0,0,0,0,0,0,0,0,0,0,0,0,461,
459,0,0,0,0,0,0,0,0,0,0,0,0,0,0,0,0,0,0,0,0,0,0,0,0,0,0,0,0,461,
459,0,0,0,0,0,0,0,0,0,0,0,0,0,0,0,0,0,0,0,0,0,0,0,0,0,0,0,0,461,
459,0,0,0,0,0,0,0,0,0,0,0,0,0,0,0,0,0,0,0,0,0,0,0,0,0,0,0,0,461,
459,0,0,0,0,0,0,0,0,0,0,0,0,0,0,0,0,0,0,0,0,0,0,0,0,0,0,0,0,461,
459,0,0,0,0,0,0,0,0,0,0,0,0,0,0,0,0,0,0,0,0,0,0,0,0,0,0,0,0,461,
459,0,0,0,0,0,0,0,0,0,0,0,0,0,0,0,0,0,0,0,0,0,0,0,0,0,0,0,0,461,
459,0,0,0,0,0,0,0,0,0,0,0,0,0,0,0,0,0,0,0,0,0,0,0,0,0,0,0,0,461,
459,0,0,0,0,0,0,0,0,0,0,410,0,0,0,0,0,0,410,0,0,0,0,0,0,0,0,0,0,461,
667,668,668,668,668,668,668,668,668,668,668,668,668,0,0,0,0,668,668,668,668,668,668,668,668,668,668,668,668,669
</data>
 </layer>
</map>
